X:1
T: Miss Hutton's Strathspey
C:John Bowie
R:Strathspey
Q: 128
K:Gm
M:4/4
L:1/16
|:A2|BF3 F3E DF3 F4|DG3 G3A B3c dg3|f3d c3B ABc2 AF3|GG3 d3c BG3 G2A2|
BF3 F3E DF3 F4|DG3 G3A B3c dg3|f3d c3B ABc2 AF3|GG3 d3c BG3 G2F2|
BB3 d3B f3d c3B|ABc2 f3d c3f AF3|G3A Bd3 g^fga g3d|b3a g3^f gg3 g3f|
gab2 g3d efg2 e3c|dcBA B3G ^F3A D3c|Bd3 GB3 c3e d3c|B3G BAG^F G4 G2:|
